packages/ffe-icons/icons/filled/md/gps_not_fixed.svg

<svg xmlns="http://www.w3.org/2000/svg" height="24" viewBox="0 -960 960 960" width="24"><path d="M450.001-100.001v-39.231q-125-12.846-210.462-98.307-85.461-85.462-98.307-210.462h-39.231q-12.75 0-21.374-8.628-8.625-8.629-8.625-21.384 0-12.756 8.625-21.371 8.625-8.615 21.374-8.615h39.231q12.846-125 98.307-210.462 85.462-85.461 210.462-98.307v-39.231q0-12.749 8.628-21.374 8.629-8.625 21.384-8.625 12.756 0 21.371 8.625 8.615 8.625 8.615 21.374v39.231q125 12.846 210.462 98.307 85.461 85.462 98.307 210.462h39.231q12.749 0 21.374 8.628 8.625 8.629 8.625 21.384 0 12.756-8.625 21.371-8.625 8.615-21.374 8.615h-39.231q-12.846 125-98.307 210.462-85.462 85.461-210.462 98.307v39.231q0 12.75-8.628 21.374-8.629 8.625-21.384 8.625-12.756 0-21.371-8.625-8.615-8.625-8.615-21.374ZM480-198q116 0 198-82t82-198q0-116-82-198t-198-82q-116 0-198 82t-82 198q0 116 82 198t198 82Z"/></svg>

<svg xmlns="http://www.w3.org/2000/svg" height="24" viewBox="0 -960 960 960" width="24"><path d="M450-100v-39.23q-125-12.85-210.46-98.31Q154.08-323 141.23-448H102q-12.75 0-21.37-8.63Q72-465.26 72-478.01q0-12.76 8.63-21.37Q89.25-508 102-508h39.23q12.85-125 98.31-210.46Q325-803.92 450-816.77V-856q0-12.75 8.63-21.37 8.63-8.63 21.38-8.63 12.76 0 21.37 8.63Q510-868.75 510-856v39.23q125 12.85 210.46 98.31Q805.92-633 818.77-508H858q12.75 0 21.37 8.63 8.63 8.63 8.63 21.38 0 12.76-8.63 21.37Q870.75-448 858-448h-39.23q-12.85 125-98.31 210.46Q635-152.08 510-139.23V-100q0 12.75-8.63 21.37Q492.74-70 479.99-70q-12.76 0-21.37-8.63Q450-87.25 450-100Zm30-98q116 0 198-82t82-198q0-116-82-198t-198-82q-116 0-198 82t-82 198q0 116 82 198t198 82Z"/></svg>
